X: 20101
Q: "Slow"
M: 6/8
L: 1/8
K: A
e |\
f2e d2c | e2d B3 | c2e f2e | (c3 A2)e |\
f2e d2c | e2d B3 | c2e f2e | A3- A2 H|]
d |\
(ed).c (cB).A | G2B d2B | f2e ^d2e | (c3 A2)e |\
(ed).c (cB).A | G2B d2B | f2e ^d2e | A3- A2 |]
d2e f2=g | (a3 b2)a | g2a =g2a | (f3 d2)A |\
d2e f2=g | (a3 b2)a | ^g2a =g2 | d3- d2 |]


